images/button_up.svg

<svg width="55" height="55" viewBox="0 0 55 55" fill="none" xmlns="http://www.w3.org/2000/svg">
<path d="M15.317 23.2273L15.317 23.2273L25.835 12.7322C25.8353 12.732 25.8355 12.7318 25.8357 12.7316C26.094 12.4729 26.4008 12.2677 26.7384 12.1276C27.0764 11.9874 27.4387 11.9152 27.8046 11.9152C28.1705 11.9152 28.5328 11.9874 28.8707 12.1276C29.2085 12.2677 29.5154 12.4731 29.7738 12.7319L15.317 23.2273ZM15.317 23.2273C15.058 23.4858 14.8526 23.7928 14.7124 24.1307C14.5722 24.4687 14.5 24.831 14.5 25.1969C14.5 25.5628 14.5722 25.925 14.7124 26.263C14.8525 26.6008 15.0578 26.9077 15.3167 27.1661C16.4056 28.255 18.1658 28.2551 19.2548 27.1662C19.2549 27.1662 19.255 27.1661 19.255 27.1661L27.8151 18.6499L36.3542 27.189C36.8764 27.7112 37.5847 28.0046 38.3233 28.0046C39.0619 28.0046 39.7703 27.7112 40.2925 27.189C40.8148 26.6667 41.1082 25.9584 41.1082 25.2198C41.1082 24.4812 40.8148 23.7729 40.2925 23.2506L29.7741 12.7322L15.317 23.2273ZM16.0238 41.561L16.0234 41.5607C15.8575 41.3951 15.7259 41.1984 15.6361 40.9819C15.5463 40.7654 15.5 40.5333 15.5 40.299C15.5 40.0646 15.5462 39.8325 15.6361 39.616C15.7259 39.3995 15.8575 39.2028 16.0234 39.0373C16.0234 39.0373 16.0234 39.0373 16.0234 39.0372L26.5421 28.5414L26.5429 28.5407C26.7084 28.3748 26.9051 28.2432 27.1216 28.1533C27.3381 28.0635 27.5702 28.0173 27.8046 28.0173C28.039 28.0173 28.2711 28.0635 28.4876 28.1533C28.7041 28.2432 28.9007 28.3748 29.0663 28.5407L29.0667 28.5411L39.5854 39.0598C39.9201 39.3945 40.1082 39.8485 40.1082 40.3219C40.1082 40.7952 39.9201 41.2492 39.5854 41.5839C39.2507 41.9187 38.7967 42.1067 38.3233 42.1067C37.85 42.1067 37.396 41.9187 37.0613 41.5839L28.1696 32.6923L27.8169 32.3396L27.4634 32.6914L18.5488 41.5601L18.5479 41.561C17.8494 42.2595 16.7222 42.2595 16.0238 41.561ZM15.317 38.3294L15.317 38.3294C15.058 38.5879 14.8526 38.8949 14.7124 39.2328C14.5722 39.5708 14.5 39.9331 14.5 40.299C14.5 40.6648 14.5722 41.0271 14.7124 41.3651C14.8525 41.7029 15.0578 42.0098 15.3167 42.2681C16.4057 43.3572 18.166 43.3572 19.255 42.2681L27.8151 33.752L36.3542 42.291C36.8764 42.8133 37.5847 43.1067 38.3233 43.1067C39.0619 43.1067 39.7703 42.8133 40.2925 42.291C40.8148 41.7688 41.1082 41.0605 41.1082 40.3219C41.1082 39.5833 40.8148 38.875 40.2925 38.3527L29.7741 27.8343C29.5157 27.5753 29.2087 27.3699 28.8707 27.2297C28.5328 27.0895 28.1705 27.0173 27.8046 27.0173C27.4387 27.0173 27.0764 27.0895 26.7384 27.2297C26.4007 27.3698 26.0938 27.5751 25.8354 27.8339C25.8353 27.834 25.8352 27.8342 25.835 27.8343L15.317 38.3294ZM16.0238 26.4589L16.0234 26.4586C15.8575 26.293 15.7259 26.0964 15.6361 25.8799C15.5462 25.6634 15.5 25.4313 15.5 25.1969C15.5 24.9625 15.5462 24.7304 15.6361 24.5139C15.7259 24.2974 15.8575 24.1008 16.0234 23.9352C16.0234 23.9352 16.0234 23.9352 16.0234 23.9352L26.5421 13.4394L26.5429 13.4386C26.7084 13.2727 26.9051 13.1411 27.1216 13.0513C27.3381 12.9615 27.5702 12.9152 27.8046 12.9152C28.039 12.9152 28.2711 12.9615 28.4876 13.0513C28.7041 13.1411 28.9007 13.2727 29.0663 13.4386L29.0667 13.439L39.5854 23.9577C39.9201 24.2924 40.1082 24.7464 40.1082 25.2198C40.1082 25.6932 39.9201 26.1471 39.5854 26.4819C39.2507 26.8166 38.7967 27.0046 38.3233 27.0046C37.85 27.0046 37.396 26.8166 37.0613 26.4819L28.1696 17.5902L27.8169 17.2376L27.4634 17.5893L18.5488 26.458L18.5479 26.4589C17.8494 27.1574 16.7222 27.1574 16.0238 26.4589ZM0.5 0.5H54.5V54.5H0.5V0.5Z" fill="#FB37FF" stroke="#FB37FF"/>
</svg>

<svg width="55" height="55" fill="none" xmlns="http://www.w3.org/2000/svg"><path d="m15.317 23.227 10.518-10.495a2.783 2.783 0 0 1 3.939 0L15.317 23.227Zm0 0a2.783 2.783 0 0 0 0 3.94 2.782 2.782 0 0 0 3.938 0l8.56-8.517 8.54 8.539a2.785 2.785 0 1 0 3.938-3.938L29.773 12.732 15.317 23.227Zm.707 18.334a1.783 1.783 0 0 1 0-2.524l10.518-10.496a1.783 1.783 0 0 1 2.524 0l10.52 10.519a1.785 1.785 0 1 1-2.525 2.524l-8.891-8.892-.353-.352-.354.351-8.914 8.87h-.001a1.782 1.782 0 0 1-2.524 0Zm-.707-3.232a2.783 2.783 0 0 0 0 3.94 2.782 2.782 0 0 0 3.938 0l8.56-8.517 8.54 8.539a2.784 2.784 0 1 0 3.938-3.938L29.773 27.834a2.781 2.781 0 0 0-3.939 0L15.317 38.33Zm.707-11.87a1.783 1.783 0 0 1 0-2.524L26.541 13.44a1.782 1.782 0 0 1 2.524 0l10.52 10.519a1.785 1.785 0 0 1-2.525 2.524L28.17 17.59l-.353-.352-.354.351-8.914 8.869h-.001a1.782 1.782 0 0 1-2.524 0ZM.5.5h54v54H.5V.5Z" fill="#FB37FF" stroke="#FB37FF"/></svg>
